X:1
T:Anke van Tharaw
T:Anke van Tharaw
T:Friedrich Silcher (1827)
T:Johann Simon Dach (1636)
T:public domain - Mutopia-2013/01/06-262
C:Friedrich Silcher (1827)
Z:Johann Simon Dach (1636)
Z:public domain - Mutopia-2013/01/06-262
%%score [ 1 2 3 4 ]
L:1/8
Q:1/4=120
M:3/4
K:Bb
V:1 treble nm="Soprano"
V:2 treble nm="Alto"
V:3 treble-8 nm="Tenor"
V:4 bass nm="Bass"
V:1
 F3 G F2 | F2 B2 B2 | c3 d c2 | B4 z2 | A2 A2 A2 | c3 B A2 | G3 A G2 | F4 z2 | F3 G F2 | F2 B2 B2 | %10
 c3 d c2 | B4 z2 | A2 A2 A2 | c3 B A2 | G3 A G2 | F4 z2 | F2 F2 G2 | A2 F2 G2 | A2 A2 B2 | c4 z2 | %20
 B2 c2 d2 | e3 d c2 | B2 c2 A2 | B4 z2 |] %24
V:2
 D3 E D2 | D2 D2 D2 | E3 F E2 | D4 z2 | C2 C2 C2 | C3 C C2 | C3 C C2 | C4 z2 | D3 E D2 | D2 D2 D2 | %10
w: An\- ke van|Tha\- raw öß,|de my ge\-|fölt,|Se öß mihn|Le\- wen, mihn|Goet on mihn|Gölt.|An\- ke van|Tha\- raw heft|
 E3 F E2 | D4 z2 | C2 C2 C2 | C3 C C2 | C3 C C2 | C4 z2 | F2 C2 =E2 | F2 F2 =E2 | F2 F2 F2 | %19
w: wed\- der eer|Hart|Op my ge\-|röch\- tet ön|Löw on ön|Schmart.|An\- ke van|Tha\- raw mihn|Rihk\- dom, mihn|
 F4 z2 | F2 E2 B2 | B3 B G2 | F2 G2 F2 | F4 z2 |] %24
w: Goet,|Du mih\- ne|see\- le, mihn|Fleesch on mihn|Bloet.|
V:3
 F3 F F2 | F2 F2 F2 | A3 A A2 | B4 z2 | F2 F2 F2 | A3 G F2 | B3 B B2 | A4 z2 | F3 F F2 | F2 F2 F2 | %10
 A3 A A2 | B4 z2 | F2 F2 F2 | A3 G F2 | B3 B B2 | A4 z2 | A2 c2 c2 | c2 A2 c2 | c2 d2 d2 | e4 z2 | %20
 d2 e2 f2 | e3 f e2 | f2 e2 c2 | d4 z2 |] %24
V:4
 B,,3 B,, B,,2 | B,,2 B,,2 B,,2 | F,3 F, F,2 | B,,4 z2 | F,2 F,,2 F,2 | A,3 G, F,2 | C,3 C, C,2 | %7
 F,4 z2 | B,,3 B,, B,,2 | B,,2 B,,2 B,,2 | F,3 F, F,2 | B,,4 z2 | F,2 F,,2 F,2 | A,3 G, F,2 | %14
 C,3 C, C,2 | F,4 z2 | F,,2 A,,2 C,2 | F,2 A,2 G,2 | F,2 D,2 B,,2 | F,,4 z2 | B,2 A,2 _A,2 | %21
 G,3 F, E,2 | D,2 C,2 F,2 | B,,4 z2 |] %24

